sanis/img/main/map_point.svg

<svg width="44" height="57" viewBox="0 0 44 57" fill="none" xmlns="http://www.w3.org/2000/svg">
<g clip-path="url(#clip0_447_4690)">
<mask id="path-1-outside-1_447_4690" maskUnits="userSpaceOnUse" x="-1.11133" y="-1.11523" width="47" height="59" fill="black">
<rect fill="white" x="-1.11133" y="-1.11523" width="47" height="59"/>
<path fill-rule="evenodd" clip-rule="evenodd" d="M21.9994 4.88477C12.5493 4.88477 4.88867 12.3691 4.88867 21.6017C4.88867 23.7438 5.30098 25.7916 6.05202 27.6739C7.28128 31.5418 12.1163 39.3204 21.1817 51.0995C21.6883 51.8048 22.3374 51.7359 22.8133 51.0995C31.8396 39.3721 36.6715 31.6092 37.9269 27.7241C38.6909 25.8283 39.1109 23.7625 39.1109 21.6017C39.1109 12.3691 31.4503 4.88477 21.9994 4.88477ZM21.9998 32.5705C27.8499 32.5705 32.5924 27.8311 32.5924 21.9848C32.5924 16.1384 27.8499 11.3991 21.9998 11.3991C16.1497 11.3991 11.4072 16.1384 11.4072 21.9848C11.4072 27.8311 16.1497 32.5705 21.9998 32.5705Z"/>
</mask>
<path fill-rule="evenodd" clip-rule="evenodd" d="M21.9994 4.88477C12.5493 4.88477 4.88867 12.3691 4.88867 21.6017C4.88867 23.7438 5.30098 25.7916 6.05202 27.6739C7.28128 31.5418 12.1163 39.3204 21.1817 51.0995C21.6883 51.8048 22.3374 51.7359 22.8133 51.0995C31.8396 39.3721 36.6715 31.6092 37.9269 27.7241C38.6909 25.8283 39.1109 23.7625 39.1109 21.6017C39.1109 12.3691 31.4503 4.88477 21.9994 4.88477ZM21.9998 32.5705C27.8499 32.5705 32.5924 27.8311 32.5924 21.9848C32.5924 16.1384 27.8499 11.3991 21.9998 11.3991C16.1497 11.3991 11.4072 16.1384 11.4072 21.9848C11.4072 27.8311 16.1497 32.5705 21.9998 32.5705Z" fill="black"/>
<path d="M6.05202 27.6739L11.7702 25.8566L11.7048 25.6509L11.6248 25.4504L6.05202 27.6739ZM21.1817 51.0995L26.055 47.5993L25.9971 47.5187L25.9365 47.44L21.1817 51.0995ZM22.8133 51.0995L18.0586 47.4399L18.0332 47.4729L18.0082 47.5062L22.8133 51.0995ZM37.9269 27.7241L32.3618 25.4812L32.2826 25.6777L32.2175 25.8793L37.9269 27.7241ZM10.8887 21.6017C10.8887 15.8137 15.7305 10.8848 21.9994 10.8848V-1.11523C9.36806 -1.11523 -1.11133 8.92444 -1.11133 21.6017H10.8887ZM11.6248 25.4504C11.1504 24.2614 10.8887 22.9673 10.8887 21.6017H-1.11133C-1.11133 24.5203 -0.548445 27.3218 0.479241 29.8974L11.6248 25.4504ZM25.9365 47.44C21.4687 41.6347 18.1041 36.8933 15.7324 33.1864C13.2812 29.3553 12.1327 26.9974 11.7702 25.8566L0.333846 29.4912C1.20057 32.2184 3.08421 35.6837 5.62424 39.6537C8.2437 43.7478 11.8293 48.7851 16.4268 54.7589L25.9365 47.44ZM18.0082 47.5062C18.4058 46.9746 19.6368 45.6715 21.8278 45.6053C24.1814 45.5343 25.5775 46.9345 26.055 47.5993L16.3084 54.5996C17.2925 55.9697 19.2664 57.6882 22.1901 57.5999C24.9514 57.5165 26.7449 55.8607 27.6184 54.6927L18.0082 47.5062ZM32.2175 25.8793C31.8408 27.0453 30.6785 29.4149 28.2318 33.2346C25.8617 36.9348 22.5069 41.6603 18.0586 47.4399L27.568 54.7591C32.1459 48.8112 35.7203 43.7917 38.3366 39.7072C40.8762 35.7424 42.7576 32.288 43.6362 29.5688L32.2175 25.8793ZM33.1109 21.6017C33.1109 22.9786 32.8444 24.2839 32.3618 25.4812L43.4919 29.967C44.5375 27.3726 45.1109 24.5464 45.1109 21.6017H33.1109ZM21.9994 10.8848C28.2692 10.8848 33.1109 15.8139 33.1109 21.6017H45.1109C45.1109 8.92427 34.6313 -1.11523 21.9994 -1.11523V10.8848ZM26.5924 21.9848C26.5924 24.5137 24.5399 26.5705 21.9998 26.5705V38.5705C31.1599 38.5705 38.5924 31.1485 38.5924 21.9848H26.5924ZM21.9998 17.3991C24.5399 17.3991 26.5924 19.4558 26.5924 21.9848H38.5924C38.5924 12.8211 31.1599 5.39905 21.9998 5.39905V17.3991ZM17.4072 21.9848C17.4072 19.4558 19.4597 17.3991 21.9998 17.3991V5.39905C12.8396 5.39905 5.40719 12.8211 5.40719 21.9848H17.4072ZM21.9998 26.5705C19.4597 26.5705 17.4072 24.5137 17.4072 21.9848H5.40719C5.40719 31.1485 12.8396 38.5705 21.9998 38.5705V26.5705Z" fill="white" mask="url(#path-1-outside-1_447_4690)"/>
<ellipse cx="22" cy="21.985" rx="6.51852" ry="6.51429" fill="#F9C859"/>
</g>
<defs>
<clipPath id="clip0_447_4690">
<rect width="44" height="57" fill="white"/>
</clipPath>
</defs>
</svg>

<svg width="44" height="57" fill="none" xmlns="http://www.w3.org/2000/svg"><g clip-path="url(#clip0_447_4690)"><mask id="a" maskUnits="userSpaceOnUse" x="-1.111" y="-1.115" width="47" height="59" fill="#000"><path fill="#fff" d="M-1.111-1.115h47v59h-47z"/><path fill-rule="evenodd" clip-rule="evenodd" d="M22 4.885c-9.45 0-17.111 7.484-17.111 16.717 0 2.142.412 4.19 1.163 6.072 1.23 3.868 6.064 11.646 15.13 23.425.506.706 1.155.637 1.631 0 9.027-11.727 13.859-19.49 15.114-23.375a16.34 16.34 0 001.184-6.122c0-9.233-7.66-16.717-17.112-16.717zm0 27.686c5.85 0 10.592-4.74 10.592-10.586 0-5.847-4.742-10.586-10.592-10.586-5.85 0-10.593 4.74-10.593 10.586S16.15 32.57 22 32.57z"/></mask><path fill-rule="evenodd" clip-rule="evenodd" d="M22 4.885c-9.45 0-17.111 7.484-17.111 16.717 0 2.142.412 4.19 1.163 6.072 1.23 3.868 6.064 11.646 15.13 23.425.506.706 1.155.637 1.631 0 9.027-11.727 13.859-19.49 15.114-23.375a16.34 16.34 0 001.184-6.122c0-9.233-7.66-16.717-17.112-16.717zm0 27.686c5.85 0 10.592-4.74 10.592-10.586 0-5.847-4.742-10.586-10.592-10.586-5.85 0-10.593 4.74-10.593 10.586S16.15 32.57 22 32.57z" fill="#000"/><path d="M6.052 27.674l5.718-1.817-.065-.206-.08-.2-5.573 2.223zm15.13 23.425l4.873-3.5-.058-.08-.06-.079-4.755 3.66zm1.631 0l-4.754-3.66-.026.034-.025.033 4.805 3.593zm15.114-23.375l-5.565-2.243-.08.197-.064.201 5.709 1.845zm-27.038-6.122c0-5.788 4.841-10.717 11.11-10.717v-12c-12.63 0-23.11 10.04-23.11 22.717h12zm.736 3.848a10.345 10.345 0 01-.736-3.848h-12c0 2.918.563 5.72 1.59 8.295l11.146-4.447zm14.311 21.99c-4.467-5.805-7.832-10.547-10.204-14.254-2.45-3.83-3.6-6.189-3.962-7.33L.334 29.492c.867 2.727 2.75 6.193 5.29 10.163 2.62 4.094 6.205 9.131 10.803 15.105l9.51-7.319zm-7.928.066c.398-.531 1.629-1.834 3.82-1.9 2.353-.072 3.75 1.328 4.227 1.993l-9.747 7c.985 1.37 2.958 3.09 5.882 3 2.761-.082 4.555-1.738 5.428-2.906l-9.61-7.187zm14.21-21.627c-.377 1.166-1.54 3.536-3.986 7.356-2.37 3.7-5.725 8.425-10.173 14.205l9.509 7.32c4.578-5.949 8.152-10.968 10.769-15.053 2.54-3.965 4.42-7.419 5.3-10.138l-11.42-3.69zm.893-4.277c0 1.377-.267 2.682-.75 3.88l11.13 4.485a22.34 22.34 0 001.62-8.365h-12zM21.999 10.885c6.27 0 11.112 4.929 11.112 10.717h12c0-12.678-10.48-22.717-23.112-22.717v12zm4.593 11.1A4.59 4.59 0 0122 26.57v12c9.16 0 16.592-7.422 16.592-16.585h-12zM22 17.399a4.59 4.59 0 014.592 4.586h12C38.592 12.82 31.16 5.399 22 5.399v12zm-4.593 4.586A4.59 4.59 0 0122 17.399v-12c-9.16 0-16.593 7.422-16.593 16.586h12zM22 26.57a4.59 4.59 0 01-4.593-4.585h-12C5.407 31.148 12.84 38.57 22 38.57v-12z" fill="#fff" mask="url(#a)"/><ellipse cx="22" cy="21.985" rx="6.519" ry="6.514" fill="#F9C859"/></g><defs><clipPath id="clip0_447_4690"><path fill="#fff" d="M0 0h44v57H0z"/></clipPath></defs></svg>
